gender-male-female.svg

<svg  viewBox="0 0 24 24" fill="currentColor"><path  d="M17.58,4H14V2H21V9H19V5.41L15.17,9.24C15.69,10.03 16,11 16,12C16,14.42 14.28,16.44 12,16.9V19H14V21H12V23H10V21H8V19H10V16.9C7.72,16.44 6,14.42 6,12A5,5 0 0,1 11,7C12,7 12.96,7.3 13.75,7.83L17.58,4M11,9A3,3 0 0,0 8,12A3,3 0 0,0 11,15A3,3 0 0,0 14,12A3,3 0 0,0 11,9Z"/></svg>

<svg fill="currentColor" viewBox="0 0 24 24"><path d="M17.58 4H14V2h7v7h-2V5.41l-3.83 3.83A5 5 0 0 1 12 16.9V19h2v2h-2v2h-2v-2H8v-2h2v-2.1A5 5 0 0 1 6 12a5 5 0 0 1 5-5c1 0 1.96.3 2.75.83zM11 9a3 3 0 0 0-3 3 3 3 0 0 0 3 3 3 3 0 0 0 3-3 3 3 0 0 0-3-3"/></svg>
